X: 10879
T: Drops Of Brandy, The
R: slip jig
M: 9/8
K: Dmajor
ABA FDF FDF|ABA FDF GFE|ABA FDF FDF|GFG E2 F GFE|
ABA FDF FDF|ABA FDF GFE|ABA FDF FDF|GFG E2 F GFE:|
DFA dAF dAF|DFA dAF GFE|DFA dAF dAF|GFG E2 F GFE|
DFA dAF dAF|DFA dAF GFE|DFA dfe dAF|GFG E2 F GFE:|

